Obsidian-SemiLight/actions/22s/document-save-as-template.svg

<svg viewBox="0 0 22 22" xmlns="http://www.w3.org/2000/svg"><path d="m2 2.9980469v.0019531 1 15h1 9v-1h-6v-6h9v-1h-9-1v7h-2v-14h3v4 1h8v-1-4h.292969l2.707031 2.7070312v.2929688 5h1v-5-.6992188h-.007812l.007812-.0097656-3.292969-3.2929687-.007812.0097656v-.0097656h-.699219zm5 1.0019531h3.900391v4h-3.900391zm9 9-.574219 1.613281-1.546875-.734375.734375 1.546875-1.613281.574219 1.613281.574219-.734375 1.546875 1.546875-.734375.574219 1.613281.574219-1.613281 1.546875.734375-.734375-1.546875 1.613281-.574219-1.613281-.574219.734375-1.546875-1.546875.734375z" fill="#4d4d4d"/></svg>

<svg xmlns="http://www.w3.org/2000/svg" viewBox="0 0 22 22">
  <defs id="defs3051">
    <style type="text/css" id="current-color-scheme">
      .ColorScheme-Text {
        color:#4d4d4d;
      }
      </style>
  </defs>
 <path 
    style="fill:currentColor;fill-opacity:1;stroke:none" 
	d="M 2 2.9980469 L 2 3 L 2 4 L 2 19 L 3 19 L 12 19 L 12 18 L 6 18 L 6 12 L 15 12 L 15 11 L 6 11 L 5 11 L 5 18 L 3 18 L 3 4 L 6 4 L 6 8 L 6 9 L 14 9 L 14 8 L 14 4 L 14.292969 4 L 17 6.7070312 L 17 7 L 17 12 L 18 12 L 18 7 L 18 6.3007812 L 17.992188 6.3007812 L 18 6.2910156 L 14.707031 2.9980469 L 14.699219 3.0078125 L 14.699219 2.9980469 L 14 2.9980469 L 2 2.9980469 z M 7 4 L 10.900391 4 L 10.900391 8 L 7 8 L 7 4 z M 16 13 L 15.425781 14.613281 L 13.878906 13.878906 L 14.613281 15.425781 L 13 16 L 14.613281 16.574219 L 13.878906 18.121094 L 15.425781 17.386719 L 16 19 L 16.574219 17.386719 L 18.121094 18.121094 L 17.386719 16.574219 L 19 16 L 17.386719 15.425781 L 18.121094 13.878906 L 16.574219 14.613281 L 16 13 z "
    class="ColorScheme-Text"
    />
</svg>
